packages/core/src/svgs/tokens/branded/NAVI.svg

<svg width="24" height="24" viewBox="0 0 24 24" fill="none" xmlns="http://www.w3.org/2000/svg">
<path d="M7.48238 14.1792L2.96582 19.259V4.56477C2.96582 3.96583 3.20375 3.39143 3.62726 2.96792C4.05077 2.54441 4.62517 2.30649 5.2241 2.30649C5.82304 2.30649 6.39744 2.54441 6.82094 2.96792C7.24446 3.39143 7.48238 3.96583 7.48238 4.56477V14.1792Z" fill="url(#paint0_linear_364_8596)"/>
<path d="M7.32037 10.5485L7.12036 3.33044L19.5771 18.3492C19.7657 18.5756 19.9072 18.8374 19.9933 19.1193C20.0795 19.4011 20.1085 19.6973 20.0786 19.9904C20.0487 20.2837 19.9605 20.5679 19.8195 20.8265C19.6782 21.0852 19.4867 21.313 19.2564 21.4966C18.7909 21.8678 18.1985 22.0416 17.6063 21.9807C17.0142 21.9197 16.4697 21.629 16.0895 21.1709L7.32037 10.5485Z" fill="url(#paint1_linear_364_8596)"/>
<path d="M2.9707 19.0849L7.48726 13.7237V19.7417C7.48726 20.3406 7.24934 20.9151 6.82582 21.3386C6.40232 21.7621 5.82792 22 5.22898 22C4.63006 22 4.05566 21.7621 3.63214 21.3386C3.20864 20.9151 2.9707 20.3406 2.9707 19.7417V19.0849Z" fill="#FFC524"/>
<path d="M2.9707 5.27709L7.48726 10.8008V4.56477C7.48726 3.96583 7.24934 3.39143 6.82582 2.96792C6.40232 2.54441 5.82792 2.30649 5.22898 2.30649C4.63006 2.30649 4.05566 2.54441 3.63214 2.96792C3.20864 3.39143 2.9707 3.96583 2.9707 4.56477V5.27709Z" fill="#91D450"/>
<path d="M20.8098 6.31137C20.9584 5.94357 21.0345 5.55054 21.0342 5.15383C21.0342 3.41174 19.5895 2 17.8082 2C16.0267 2 14.582 3.41174 14.582 5.15383C14.582 5.54098 14.6529 5.91198 14.7839 6.2546C15.395 8.25736 16.9933 9.81563 17.7913 10.3879C19.5709 9.07747 20.4536 7.40954 20.8098 6.31137Z" fill="#FF7819"/>
<path d="M17.8087 6.51598C18.5217 6.51598 19.0998 5.93823 19.0998 5.22554C19.0998 4.51285 18.5217 3.93509 17.8087 3.93509C17.0957 3.93509 16.5176 4.51285 16.5176 5.22554C16.5176 5.93823 17.0957 6.51598 17.8087 6.51598Z" fill="#AC46BC"/>
<defs>
<linearGradient id="paint0_linear_364_8596" x1="21.034" y1="12.5549" x2="2.98532" y2="11.9342" gradientUnits="userSpaceOnUse">
<stop stop-color="#5DC17C"/>
<stop offset="1" stop-color="#8CD037"/>
</linearGradient>
<linearGradient id="paint1_linear_364_8596" x1="2.96372" y1="5.62126" x2="14.692" y2="24.6612" gradientUnits="userSpaceOnUse">
<stop stop-color="#9CD863"/>
<stop offset="1" stop-color="#49ADDA"/>
</linearGradient>
</defs>
</svg>

<svg xmlns="http://www.w3.org/2000/svg" width="24" height="24" fill="none" viewBox="0 0 24 24">
    <path fill="url(#NAVI__a)" d="m7.482 14.18-4.516 5.079V4.565a2.258 2.258 0 0 1 4.516 0z"/>
    <path fill="url(#NAVI__b)" d="m7.32 10.549-.2-7.219 12.457 15.02a2.213 2.213 0 0 1-.32 3.147 2.274 2.274 0 0 1-3.168-.326z"/>
    <path fill="#FFC524" d="m2.97 19.085 4.517-5.361v6.018a2.258 2.258 0 0 1-4.516 0z"/>
    <path fill="#91D450" d="m2.97 5.277 4.517 5.524V4.565a2.258 2.258 0 1 0-4.516 0z"/>
    <path fill="#FF7819" d="M20.81 6.311c.148-.367.225-.76.224-1.157C21.034 3.412 19.59 2 17.808 2c-1.781 0-3.226 1.412-3.226 3.154 0 .387.07.758.202 1.1.611 2.003 2.21 3.562 3.007 4.134 1.78-1.31 2.663-2.978 3.019-4.077"/>
    <path fill="#AC46BC" d="M17.809 6.516a1.29 1.29 0 1 0 0-2.582 1.29 1.29 0 0 0 0 2.582"/>
    <defs>
        <linearGradient id="NAVI__a" x1="21.034" x2="2.985" y1="12.555" y2="11.934" gradientUnits="userSpaceOnUse">
            <stop stop-color="#5DC17C"/>
            <stop offset="1" stop-color="#8CD037"/>
        </linearGradient>
        <linearGradient id="NAVI__b" x1="2.964" x2="14.692" y1="5.621" y2="24.661" gradientUnits="userSpaceOnUse">
            <stop stop-color="#9CD863"/>
            <stop offset="1" stop-color="#49ADDA"/>
        </linearGradient>
    </defs>
</svg>
